X:010
T:Wright’s Hornpipe TS.010
M:C|
L:1/8
Q:1/2=90
S:Thomas Sands’ MS,1810,Lincolnshire
N:A faint echo of Morpeth Rant?
R:.hornpipe
O:England;Lincolnshire
Z:vmp.Ruairidh Greig, 2011
K:Bb
(BA)|B2(FE) DBFB|GABc BAGF|GABc dBfB|bBfB BAGF|
BGFE DBFB|GBFB EBDB|DFBd EGce|dBcAB2:|
|:ga|bfdB bfdB|fdcd BAGF|ecec dBdB|A2F2F2(B_A)|
GBEB edcB|AFAc fedc|Bbab fdBf|d2B2B2:|]

